assets/img/form-img-1.svg

<svg width="65" height="66" viewBox="0 0 65 66" fill="none" xmlns="http://www.w3.org/2000/svg">
<ellipse cx="32.5" cy="33" rx="32.5" ry="33" fill="#FF7D34"/>
<g clip-path="url(#clip0_1_848)">
<path d="M25.7659 32.2453C24.2991 33.1124 23.5021 34.0818 23.318 35.6912C23.0703 37.8509 22.5655 39.9818 22.121 42.1127C21.7558 43.8629 20.2667 44.9603 18.6983 44.7171C16.9996 44.4548 15.8153 43.1398 16.0852 41.316C16.6186 37.6909 17.3711 34.101 18.0347 30.4951C18.0442 30.4439 18.0601 30.3863 18.0918 30.3479C20.8414 27.1356 23.4069 23.6289 28.1028 23.2449C29.7316 23.1138 31.3826 23.1809 33.0209 23.2321C35.3705 23.3057 36.7992 25.0207 37.4215 27.2668C38.1867 30.0216 39.2472 32.7924 42.3714 33.8962C44.2098 34.5458 46.0227 35.2785 47.8293 36.0175C49.5089 36.7055 50.2202 38.2284 49.709 39.8954C49.2518 41.3896 47.6293 42.3783 46.0354 41.8407C42.9398 40.7945 39.8981 39.5914 36.8532 38.4012C36.3484 38.2028 35.9388 37.7581 35.3482 37.3262C34.9482 39.0635 34.5005 40.6889 34.237 42.3463C34.1608 42.8294 34.5291 43.4469 34.8243 43.9172C37.9168 48.8734 41.0347 53.8103 44.1431 58.7536C44.3971 59.1567 44.6765 59.5503 44.8892 59.9758C45.7719 61.7516 45.3941 63.6841 43.9812 64.7143C42.508 65.7894 40.5871 65.6966 39.2885 64.0936C36.6817 60.8813 34.2624 57.5153 31.7699 54.2102C31.0365 53.2375 30.3126 52.2585 29.468 51.129C27.9059 55.8164 24.6007 59.2463 22.0606 63.1626C20.7843 65.1271 19.3809 65.7062 17.6759 65.2423C15.7169 64.7111 14.5485 62.6026 15.4216 60.7597C16.1646 59.1919 17.1139 57.6817 18.1934 56.3283C20.8637 52.988 22.575 49.2925 23.2481 45.0243C23.9149 40.7977 24.8864 36.6191 25.7628 32.2389L25.7659 32.2453ZM30.5349 24.9119C26.4073 24.9119 22.4163 26.9948 20.0604 30.4183C19.8032 30.7959 19.654 31.2822 19.5651 31.7397C18.9809 34.7633 18.4601 37.7997 17.8505 40.8169C17.6537 41.7895 17.7458 42.599 18.7681 42.8422C19.908 43.1142 20.3429 42.3591 20.5176 41.3224C20.9176 38.9675 21.3336 36.6127 21.8225 34.277C21.9559 33.6371 22.2226 32.9108 22.6703 32.4756C23.845 31.3334 25.1309 30.2967 26.4263 29.2889C26.7343 29.0457 27.4963 28.8601 27.6138 29.0073C27.8869 29.3465 28.071 29.9384 27.9885 30.3671C27.4233 33.2819 26.8613 36.2031 26.1342 39.0827C25.5278 41.4888 25.9374 43.5173 27.4487 45.4978C31.3445 50.6011 35.1291 55.7908 38.9614 60.9421C39.5266 61.7004 39.9933 62.6026 40.7204 63.1466C41.1935 63.4985 42.254 63.6073 42.6921 63.3001C43.2001 62.9418 43.597 61.9851 43.5272 61.342C43.4478 60.6189 42.8159 59.947 42.3937 59.2751C39.2059 54.1974 35.9864 49.1421 32.8463 44.0356C32.5129 43.4949 32.424 42.6374 32.5542 41.9975C33.3321 38.206 34.1195 34.4082 35.0783 30.6583C36.3452 25.7054 34.9863 24.6111 30.5317 24.9119H30.5349ZM25.0357 45.1747C24.8737 45.7666 24.7594 46.1665 24.6515 46.5665C24.1467 48.4478 23.9943 50.5339 23.0608 52.1689C21.4955 54.9013 19.4571 57.3618 17.5711 59.9022C16.6916 61.0861 16.6472 62.6154 17.5965 63.3097C18.5395 64.0008 19.5809 63.6745 20.5017 62.3627C22.3559 59.7166 24.3086 57.1282 25.9977 54.3798C26.9216 52.8792 27.7376 51.1354 27.9281 49.4237C28.0297 48.515 26.6962 47.44 26.0041 46.4481C25.7628 46.1025 25.496 45.7762 25.0388 45.1747H25.0357ZM36.8405 30.7511C36.5706 31.8357 36.3547 32.6548 36.1674 33.4803C35.8753 34.7633 36.5611 36.4335 37.7898 36.9262C40.622 38.0621 43.4859 39.1307 46.3815 40.0874C46.8133 40.2314 47.4864 39.633 48.0484 39.3771C47.7912 38.814 47.6801 38.0365 47.2451 37.7325C46.5307 37.2334 45.6163 37.0158 44.7718 36.7247C41.5872 35.6272 38.3677 34.5905 36.8437 30.7543L36.8405 30.7511Z" fill="white"/>
<path d="M40.8979 16.0139C40.8788 19.5271 38.0816 22.2915 34.6113 22.2243C31.2076 22.1603 28.3818 19.2103 28.458 15.8028C28.5343 12.4592 31.4077 9.65643 34.7415 9.67243C38.2245 9.68843 40.9169 12.4624 40.8947 16.0107L40.8979 16.0139ZM34.7542 20.4293C37.1958 20.4133 39.2056 18.4232 39.231 15.9979C39.2564 13.5087 37.2021 11.4578 34.6938 11.4674C32.1951 11.4802 30.2837 13.3903 30.271 15.8988C30.2551 18.4968 32.1824 20.4453 34.7542 20.4293Z" fill="white"/>
</g>
<defs>
<clipPath id="clip0_1_848">
<rect width="34.7414" height="55.7586" fill="white" transform="translate(15.1294 9.67236)"/>
</clipPath>
</defs>
</svg>

<?xml version="1.0"?>
<svg width="65" height="66" xmlns="http://www.w3.org/2000/svg" xmlns:svg="http://www.w3.org/2000/svg">
 <defs>
  <clipPath id="clip0_1_848">
   <rect fill="white" height="55.76" id="svg_1" transform="translate(15.1294 9.67236)" width="34.74"/>
  </clipPath>
 </defs>
 <g class="layer">
  <title>Layer 1</title>
  <ellipse cx="32.5" cy="33" fill="#6d9bc6" id="svg_2" rx="32.5" ry="33"/>
  <g clip-path="url(#clip0_1_848)" id="svg_3">
   <path d="m25.77,32.25c-1.47,0.86 -2.27,1.83 -2.45,3.44c-0.25,2.16 -0.75,4.29 -1.2,6.42c-0.36,1.75 -1.85,2.85 -3.42,2.61c-1.7,-0.27 -2.88,-1.58 -2.61,-3.4c0.53,-3.63 1.28,-7.22 1.94,-10.82c0.01,-0.06 0.03,-0.11 0.06,-0.15c2.75,-3.21 5.32,-6.72 10.01,-7.11c1.63,-0.13 3.28,-0.06 4.92,-0.01c2.35,0.08 3.78,1.79 4.4,4.04c0.77,2.75 1.83,5.52 4.95,6.63c1.84,0.65 3.65,1.38 5.46,2.12c1.68,0.69 2.39,2.21 1.88,3.88c-0.46,1.49 -2.08,2.48 -3.67,1.94c-3.1,-1.05 -6.14,-2.25 -9.19,-3.44c-0.5,-0.2 -0.91,-0.64 -1.5,-1.07c-0.4,1.73 -0.85,3.36 -1.11,5.02c-0.08,0.48 0.29,1.1 0.58,1.57c3.1,4.95 6.21,9.89 9.32,14.83c0.26,0.41 0.54,0.8 0.75,1.23c0.88,1.77 0.5,3.7 -0.91,4.73c-1.47,1.08 -3.39,0.99 -4.69,-0.62c-2.61,-3.21 -5.03,-6.57 -7.52,-9.88c-0.73,-0.97 -1.46,-1.95 -2.3,-3.08c-1.56,4.69 -4.87,8.12 -7.41,12.03c-1.28,1.97 -2.68,2.55 -4.38,2.08c-1.96,-0.53 -3.13,-2.64 -2.26,-4.48c0.74,-1.57 1.69,-3.08 2.77,-4.43c2.67,-3.34 4.38,-7.04 5.06,-11.31c0.66,-4.22 1.64,-8.4 2.51,-12.78l0.01,0.01zm4.76,-7.34c-4.12,0 -8.11,2.08 -10.47,5.51c-0.26,0.38 -0.41,0.86 -0.49,1.32c-0.59,3.02 -1.11,6.06 -1.72,9.08c-0.2,0.97 -0.1,1.78 0.92,2.02c1.14,0.27 1.57,-0.48 1.75,-1.52c0.4,-2.35 0.81,-4.71 1.3,-7.04c0.14,-0.64 0.4,-1.37 0.85,-1.8c1.17,-1.15 2.46,-2.18 3.76,-3.19c0.3,-0.24 1.07,-0.43 1.18,-0.28c0.28,0.34 0.46,0.93 0.38,1.36c-0.57,2.91 -1.13,5.83 -1.86,8.71c-0.6,2.41 -0.19,4.44 1.32,6.42c3.89,5.1 7.68,10.29 11.51,15.44c0.57,0.76 1.03,1.66 1.76,2.21c0.47,0.35 1.53,0.46 1.97,0.15c0.51,-0.36 0.91,-1.31 0.84,-1.96c-0.08,-0.72 -0.71,-1.39 -1.14,-2.06c-3.18,-5.08 -6.4,-10.14 -9.54,-15.24c-0.34,-0.55 -0.43,-1.4 -0.3,-2.04c0.78,-3.79 1.57,-7.59 2.53,-11.34c1.27,-4.95 -0.09,-6.05 -4.55,-5.75l0,0zm-5.49,20.26c-0.17,0.6 -0.28,1 -0.39,1.4c-0.5,1.88 -0.66,3.96 -1.59,5.6c-1.56,2.73 -3.6,5.19 -5.49,7.73c-0.88,1.19 -0.92,2.72 0.03,3.41c0.94,0.69 1.98,0.36 2.9,-0.95c1.86,-2.64 3.81,-5.23 5.5,-7.98c0.92,-1.5 1.74,-3.24 1.93,-4.96c0.1,-0.9 -1.23,-1.98 -1.93,-2.97c-0.24,-0.35 -0.5,-0.67 -0.96,-1.28l0,0zm11.8,-14.42c-0.27,1.09 -0.49,1.9 -0.67,2.73c-0.29,1.28 0.39,2.95 1.62,3.45c2.83,1.13 5.7,2.2 8.59,3.16c0.43,0.14 1.11,-0.46 1.67,-0.71c-0.26,-0.57 -0.37,-1.34 -0.8,-1.65c-0.72,-0.5 -1.63,-0.71 -2.48,-1.01c-3.18,-1.09 -6.4,-2.13 -7.93,-5.97l0,0z" fill="white" id="svg_4"/>
   <path d="m40.9,16.01c-0.02,3.52 -2.82,6.28 -6.29,6.21c-3.4,-0.06 -6.23,-3.01 -6.15,-6.42c0.07,-3.34 2.95,-6.14 6.28,-6.13c3.48,0.02 6.18,2.79 6.15,6.34l0.01,0zm-6.15,4.42c2.45,-0.02 4.46,-2.01 4.48,-4.43c0.03,-2.49 -2.03,-4.54 -4.54,-4.53c-2.49,0.01 -4.41,1.92 -4.42,4.43c-0.01,2.6 1.91,4.55 4.48,4.53z" fill="white" id="svg_5"/>
  </g>
 </g>
</svg>
